X:1
T:Exaudi Domine - Webbe
T:#
%%score 1 { ( 2 3 ) | 4 }
L:1/8
Q:1/4=90
M:4/4
K:Bb
V:1 bass nm="Bass" snm="B"
V:2 treble nm="Organ"
V:3 treble 
V:4 bass 
V:1
"^Exaudi Domine""^Samuel Webbe\n(1740-1816)""^moderato""^arr. Vincent Novello" z8 | z8 | z8 | %3
w: |||
 z4 z2 D,2 | G,2 D,2 B,>A, G,2 |[M:4/4] G,G,A,G, ^F,2 D,2 | z2 G,4 A,2 | B,2 G,2 D,4 | G,,4 z4 | %9
w: Ex-|au- di, Do- mi- ne,|pre- ces ser- vi tu- i,|pre- ces|ser- vi- tu-|i:|
 z4 z2 z F, | F,>F, F,2 B,>F, F,2 | (C3 A,) F,4 | F,F,F,F, B,>F, F,2 | (C3 A,) F,4 | %14
w: il-|lu- mi- na fa- ci- em|tu\- * am|su- per san- ctu- a- ri- um|tu\- * um,|
 B,,2 D,2 F,2 B,2 | G,6 F,E, | TF,8 | B,,8 | z8 | z8 | z8 | z2 G,G, G,>G, G,G, | E,4 _A,4 | %23
w: su- per san- ctu-|a- ri- um|tu-|um.||||Et pro- pi- ti- us in-|ten- de|
 G,2 G,G, E,2 C,2 | z8 | F,2 F,2 F,2 F,F, | D,3 D, G,4 | F,2 F,2 D,2 B,,2 | z8 | %29
w: po- pu- lum il- lum,||su- per quem in- vo-|ca- tum est|no- men tu- um,||
 (DC) (B,A,) (G,F,)E,D, | C,3 C, C,4 | (ED) (CB,) (A,G,) (^F,G,) | %32
w: su\- * per * quem * in- vo-|ca- tum est|no\- * men * tu\- * um, *|
 (A,3 ^F,)[Q:1/4=45] !fermata!D,2[Q:1/4=90] D,2 | G,2 D,D, B,2 G,2 | G,>G, G,2 C2 A,2 | %35
w: De\- * us; pro-|pi- tius in- ten- de|po- pu- lum il- lum,|
 B,2 G,2 E,2 G,G, | G,3 A, B,4 | G,2 G,2 E,2 C,2 | D,4 G,4 | C,4 TD,4 | G,4 G,,4 | z8 | z8 | z8 |] %44
w: su- per quem in- vo-|ca- tum est|no- men tu- um,|no- men|tu- um,|De- us.||||
V:2
!mf! G2 D2 B2 G2 | E/F/E/D/ C/D/C/B,/ A,/B,/A,/G,/ ^F,D, | gf/e/ d/c/B/A/ GF/E/ D/C/B,/A,/ | %3
 B,GA,^F [B,B]2!p! D2 | [G,DG]4 [DGB]2 z d |[M:4/4] gGAG ^FA d2 | [DG]2 [B,G]2 [EG]2 A2 | %7
 [DGB]2 [B,DG]2 G2 ^F2 |!mf! [B,G]B/A/ GG/=F/ EE/D/ C2 | FA/G/ FF/E/ DD/C/ B,2 | %10
!p! [B,DF]4 [B,DFB]4 | ([FAc]3 [CFA] [A,CF]4) | [B,DF]4 [B,DFB]4 | [FAc]3 [CFA] [A,CF]4 | %14
 [F,B,D]4 [B,DF]4 | z/ G,/A,/B,/ C/D/E/F/ G/A/B/c/ d/e/f/g/ | z/ d/b/f/ d/B/F/D/ C2 T[EA]2 | %17
!mf! [DB]2 F2 d2 B2 | G/A/G/F/ E/F/E/D/ C/D/C/B,/ A,/C/F/E/ | DE/F/ G/A/B/c/ d2 [GBeg]2 | %20
 [FBd]2 [EAc]2 [DB]4 |!p! [=B,DG]8 | [CE]4 [CF_A]4 | [B,DG]4 [CE]4 |!mf! g2 gg [Gce]2 [EGc]2 | %25
!p! [A,CF]8 | [B,D]4 [B,EG]4 | [A,CF]4 [B,D]4 |!mf! f2 f2 [FBd]2 [DFB]2 |!p! dcBA GFED | C3 C C4 | %31
 edcB AG^FG | !fermata![D^FA]6 D2 | G2 DD B2 G2 | [B,G]2 [EG]2 [Ec]2 A2 | %35
 [GB]2 [B,G]2 [G,CE]2 [CEG]2 | [DG]3 [C^FA] [DGB]4 | [DG]4 [CE]4 | D^FAc BABG | EcAG ^FdcA | %40
 [DB][Ec][DB][CA] G/A/G/F/ E/F/E/D/ |[K:bass]!mf! C/D/C/B,/ A,/B,/A,/G,/ ^F,3 F, | G,2 C,2 TD,4 | %43
 G,,8 |] %44
V:3
 x8 | x8 | x8 | B,2 A,2 x2 x2 | x8 |[M:4/4] x2 E2 D4 | x6 D^F | x4 [A,D]4 | x8 | x8 | x8 | x8 | %12
 x8 | x8 | x8 | x8 |[I:staff +1] F,8 |[I:staff -1] x8 | x8 | x8 | x8 | x8 | x8 | x8 | [G=Bd]4 x4 | %25
 x8 | x8 | x8 | [FAc]4 x4 | x8 | x8 | x8 | x8 | x8 | x6 D^F | x6 x2 | x8 | x8 | D4 D4 | E4 D4 | %40
 x4 B,2 x2 |[K:bass] x6 x2 | x6 x2 | x6 x2 |] %44
V:4
 [G,,G,]2 [D,,D,]2 [B,,B,]2 [G,,G,]2 | E,/F,/E,/D,/ C,/D,/C,/B,,/ A,,/B,,/A,,/G,,/ ^F,,D,, | %2
 [G,,B,,]2 [A,,C,]2 [B,,D,]2 [C,E,]2 | D,2 [D,,D,]2 [G,,D,]2 z2 | B,,4 G,,2 B,,2 | %5
[M:4/4] E,2 C,2 [D,A,]2- [D,^F,]2 | B,,2 E,E,/D,/ C,/B,,/A,,/G,,/ ^F,,D,, | %7
 G,,/^F,,/G,,/A,,/ B,,/A,,/B,,/C,/ D,2 D,,2 | [G,B,]B,/A,/ G,G,/=F,/ E,E,/D,/ C,2 | %9
 F,A,/G,/ F,F,/E,/ D,D,/C,/ B,,2 | D,B,,D,B,, D,B,,D,B,, | z F,,/G,,/ A,,/B,,/C,/D,/ E,D,E,C, | %12
 D,B,,D,B,, D,B,,D,B,, | z F,,/G,,/ A,,/B,,/C,/D,/ E,C,A,,F,, | B,,8 | E,8 | z2 F,,2 F,,2 F,,2 | %17
 B,,2 F,,2 D,2 B,,2 | E,/F,/E,/D,/ C,/D,/C,/B,,/ A,,2 F,,2 | B,,C,/D,/ E,/F,/G,/A,/ B,2 E,2 | %20
 F,4 [B,,F,]4 | [G,,G,]8 | C,_B,,_A,,G,, F,,G,,A,,F,, | G,,4 C,4 | G,4 C4 | [F,,F,]8 | %26
 B,,=A,,G,,F,, E,,F,,G,,E,, | F,,4 B,,4 | F,4 B,4 | D,C,B,,A,, G,,F,,E,,D,, | C,,3 C,, C,,4 | %31
 E,D,C,B,, A,,G,,^F,,G,, | !fermata![D,,D,]6 [D,,D,]2 | [G,,G,]2 [D,,D,][D,,D,] [B,,B,]2 [G,,G,]2 | %34
 E,/F,/E,/D,/ C,/D,/C,/B,,/ A,,/B,,/A,,/G,,/ ^F,,D,, | G,,4 C,4 | B,,3 A,, G,,4 | %37
 [=B,,G,]4 [C,G,]4 | [D,^F,]4 G,4 | C,4 D,4 | [G,,G,]4 [G,,G,]2 z2 | %41
 C,/D,/C,/B,,/ A,,/B,,/A,,/G,,/ ^F,,3 F,, | G,,2 C,,2 D,,4 | G,,,8 |] %44

